X:1
T:Title
%%score { 1 | 2 }
L:1/8
Q:1/4=100
M:6/8
K:F
V:1 treble nm="Grand Piano"
V:2 bass 
V:1
 A3 A2 A | AGF A2 F | c2 c d2 d | c6 | A3 A2 A | AGF A2 F | [EG]2 [EG] [EG]2 [FA] | [EG]6 | %8
w: James~Fitch * *||||||||
 A3 A2 A | AGF A2 F | c2 c d2 d | c6 | c3 d3 | cdc AGF | [FA]3 [EG]3 | F6 |] %16
w: ||||||||
V:2
 [F,CF]3 [F,CF]2 [F,CF] | [F,CF][F,B,C][F,A,C] [F,CF]2 [F,A,C] | [A,CF]2 [A,CF] [B,F]2 [B,F] | %3
 [F,A,F]6 | [F,CF]3 [F,CF]2 [F,CF] | [F,CF][F,B,C][F,A,C] [F,CF]2 [F,A,C] | %6
 [C,C]2 [C,C] [C,C]2 [C,C] | [C,C]6 | [F,CF]3 [F,CF]2 [F,CF] | %9
 [F,CF][F,B,C][F,A,C] [F,CF]2 [F,A,C] | [A,CF]2 [A,CF] [B,F]2 [B,F] | [F,A,F]6 | %12
 [F,A,F]3 [F,B,F]3 | [F,A,F][F,B,F][F,A,F] [F,CF][F,B,C][F,A,C] | [C,C]3 [C,B,]3 | [F,A,]6 |] %16

